X: 81
T: Huolang maihuo
%%abc-version 2.0
%%abcx-abcm2ps-target-version 5.9.1 (29 Sep 2008)
%%abc-creator hum2abc beta
%%abcx-conversion-date 2013/10/02 07:52:29
%%abc-edited-by Helmut Schaffrath
%%humdrum-veritas 2540417311
%%humdrum-veritas-data 1114776818
%%continueall 1
%%barnumbers 0
L: 1/8
M: 4/8
K: C
E G G [I:setbarnb 1]| 
c2c | 
e e d d | 
e d/ e/ d c | 
z e d e | 
d Ac2 | 
c c A G | 
[M:3/8]E3 | 
E2G | 
[M:4/8]A G E D | 
A G E D | 
E z d d | 
[M:3/8]e c d | 
[M:4/8]c cA2 | 
G c A G | 
E3 |]  



